X: 1
T: Brenda at SW Margaree
C: Rannie MacLellan
B: Brenda Stubbert's Collection
S: arrangement by Terry Traub
R: jig
Z: 2006 John Chambers <jc:trillian.mit.edu>
M: 6/8
L: 1/8
K: D
F/G/ \
| "D"A2F A2d | f2g fed | "G"BGB BGB | "D"AFA "A7"AFG \
| "D"A2F A2d | f2g fed | "G"BGB Bgf | "A7"fec "D"d2 :|
|: f/g/ \
| "D"a2f a2b | a2b afd | "A7"g2e "D"f2d | "G"BGB BGB \
| "D"A2F A2d | f2g fed | "G"BGB Bgf | "A7"fec "D"d2 :|
